svgs/thin/shuttlecock.svg

<svg xmlns="http://www.w3.org/2000/svg" viewBox="0 0 512 512"><!--! Font Awesome Pro 6.3.0 by @fontawesome - https://fontawesome.com License - https://fontawesome.com/license (Commercial License) Copyright 2023 Fonticons, Inc. --><path d="M504 224h-90.91c-3.094 0-5.906 1.781-7.219 4.562l-58.07 121.7l-98.09 44.82L188.1 334.3l71.42-71.42l126.4-47.4c2.375-.9062 4.188-2.875 4.875-5.312l32-112c.8125-2.781 .0313-5.781-2.031-7.844s-5.031-2.875-7.844-2.031l-112 32c-2.438 .6875-4.406 2.5-5.312 4.875L249.1 251.6L177.7 323L116.9 262.3L161.7 164.3l121.8-58.13c2.781-1.312 4.562-4.125 4.562-7.219V8c0-4.406-3.644-8-8.05-8H224.2C221 0 218.2 1.844 216.9 4.688L100.7 259.4l-69.26 69.26c-41.88 41.88-41.88 110 0 151.9C52.35 501.5 79.88 512 107.4 512s55.04-10.47 75.97-31.41l69.27-69.27l254.7-116.4C510.2 293.6 512 290.8 512 287.7V232C512 227.6 508.4 224 504 224zM310.1 134.6l94.29-26.94l-26.94 94.29l-107.8 40.41L310.1 134.6zM229.3 16h42.66v77.88L172 141.6L229.3 16zM172 469.3c-35.69 35.63-93.69 35.63-129.3 0c-35.63-35.66-35.63-93.69 0-129.3l14.94-14.94l129.3 129.3L172 469.3zM198.3 443L68.97 313.7l38.38-38.38l129.3 129.3L198.3 443zM495.1 282.5l-125.5 57.35l47.66-99.88h77.88V282.5z"/></svg>

<svg xmlns="http://www.w3.org/2000/svg" viewBox="0 0 512 512"><!-- Font Awesome Pro 6.0.0-alpha2 by @fontawesome - https://fontawesome.com License - https://fontawesome.com/license (Commercial License) --><path d="M504 224.014H413.087C409.994 224.014 407.181 225.795 405.869 228.576L347.802 350.24L249.712 395.064L188.98 334.332L260.396 262.916L386.804 215.514C389.179 214.607 390.992 212.639 391.679 210.201L423.681 98.193C424.494 95.412 423.712 92.412 421.65 90.35S416.619 87.475 413.806 88.318L301.798 120.32C299.361 121.008 297.392 122.82 296.486 125.195L249.083 251.604L177.667 323.02L116.933 262.285L161.666 164.26L283.423 106.131C286.205 104.818 287.986 102.006 287.986 98.912V8C287.986 3.594 284.392 0 279.986 0H224.169C221.044 0 218.201 1.844 216.888 4.688L100.671 259.381L31.408 328.645C-10.469 370.523 -10.469 438.684 31.408 480.592C52.347 501.531 79.878 512 107.38 512S162.416 501.531 183.355 480.592L252.621 411.326L507.312 294.955C510.187 293.643 512 290.799 512 287.674V232.014C512 227.607 508.406 224.014 504 224.014ZM310.05 134.602L404.337 107.662L377.398 201.949L269.64 242.359L310.05 134.602ZM229.326 16.002H271.984V93.881L172.009 141.57L229.326 16.002ZM172.041 469.279C136.351 504.906 78.347 504.906 42.72 469.279C7.093 433.621 7.093 375.586 42.72 339.959L57.66 325.02L186.98 454.34L172.041 469.279ZM198.292 443.027L68.972 313.707L107.349 275.33L236.669 404.65L198.292 443.027ZM495.998 282.549L370.46 339.896L418.119 240.016H495.998V282.549Z"/></svg>
